X:570
T: Blackbird (The)
T: Londubh (An)
S: "Ceol Rince na hEireann" 1/207
Z: B.Black
L: 1/8
M: C|
R: hornpipe
K: Dmix
DE|F3A GFD>A|d2 fd dcA>F|G2 AF GFDE|FGAF G2 GA|
F3A GFD>A|defd dcAG|AdcA GcAG|F2 D2 D2 :|
fg|agfa gfeg|dfe^c dBAg|afga gfeg|fedf e2 fg|
afge f2 e^c|d^cde f2 ec|dcAF GcAG|F2 D2 D2 :|
